assets/images/sponsors-logos/droit-financial-technologies.svg

<svg xmlns="http://www.w3.org/2000/svg" preserveAspectRatio="xMinYMin" viewBox="0 0 313 96" width="114pt">
  <path d="M244.69866 22.781868h-21.22V1.5646687h21.22V22.781868M27.687466 77.2392c8.658934 0 13.2052-3.12653 13.2052-22.8584V39.33027c0-17.321868-4.546266-20.302002-13.489066-20.302002h-6.390534V77.2392h6.6744M0 1.5646687h28.677066c23.145864 0 34.361464 14.6207993 34.361464 45.9984013 0 32.0912-11.785465 46.42609-35.06773 46.42609H0V1.5646687M102.65106 46.002134c7.24067 0 10.22494-2.980664 10.22494-10.929599v-5.9652c0-8.3776-3.40987-10.5052-10.50934-10.5052H95.6948v27.399999h6.95626m34.21827 47.987026h-21.58027l-12.2088-34.07449H95.9792v34.07449H74.825465V1.5646687h28.393865c19.4504 0 31.23667 8.0922663 31.23667 30.2390663 0 14.057865-4.6888 22.432799-17.60707 25.557865l9.51307 7.66667M188.83466 53.953734V39.19067c0-19.310935-3.40666-22.150935-11.49733-22.150935-7.952 0-11.21867 3.1224-11.21867 22.716135V54.3808c0 21.8636 3.69067 25.27347 11.35734 25.27347 7.952 0 11.35866-3.9792 11.35866-25.700536m-44.86533-6.390664c0-29.956668 9.94133-47.56240127 33.50667-47.56240127 23.852 0 33.50666 17.32439927 33.50666 47.28120127 0 29.5312-9.93733 48.41146-33.64533 48.41146-23.712 0-33.368-18.74066-33.368-48.13026M223.47866 28.362668h1.19867l9.512 7.644666 10.448 28.964666v29.01716h-21.15867V28.362668M255.85466 22.781868V1.5646687h56.36267V22.781868h-17.604V93.98916h-21.156V22.781868h-17.60267" fill="#231f20"/>
</svg>

<?xml version="1.0" encoding="UTF-8" standalone="no"?>
<!DOCTYPE svg PUBLIC "-//W3C//DTD SVG 1.1//EN" "http://www.w3.org/Graphics/SVG/1.1/DTD/svg11.dtd">
<svg xmlns="http://www.w3.org/2000/svg" xmlns:xl="http://www.w3.org/1999/xlink" version="1.1" preserveAspectRatio="xMinYMin" viewBox="0 0 313 96" width="313pt" height="8pc" xmlns:dc="http://purl.org/dc/elements/1.1/">
  <metadata> Produced by OmniGraffle 7.5 
    <dc:date>2017-12-02 15:56:18 +0000</dc:date>
  </metadata>
  <defs/>
  <g>
    <title>Canvas 1</title>
    <g>
      <title>Layer 1</title>
      <path d="M 244.69866 22.781868 L 223.47866 22.781868 L 223.47866 1.5646687 L 244.69866 1.5646687 L 244.69866 22.781868" fill="#231f20"/>
      <path d="M 27.687466 77.2392 C 36.3464 77.2392 40.892666 74.11267 40.892666 54.3808 L 40.892666 39.33027 C 40.892666 22.008402 36.3464 19.028268 27.4036 19.028268 L 21.013066 19.028268 L 21.013066 77.2392 L 27.687466 77.2392 M 7105427e-21 1.5646687 L 28.677066 1.5646687 C 51.82293 1.5646687 63.03853 16.185468 63.03853 47.56307 C 63.03853 79.65427 51.253065 93.98916 27.9708 93.98916 L 7105427e-21 93.98916 L 7105427e-21 1.5646687" fill="#231f20"/>
      <path d="M 102.65106 46.002134 C 109.89173 46.002134 112.876 43.02147 112.876 35.072535 L 112.876 29.107335 C 112.876 20.729735 109.46613 18.602135 102.36666 18.602135 L 95.6948 18.602135 L 95.6948 46.002134 L 102.65106 46.002134 M 136.86933 93.98916 L 115.28906 93.98916 L 103.08026 59.91467 L 95.9792 59.91467 L 95.9792 93.98916 L 74.825465 93.98916 L 74.825465 1.5646687 L 103.21933 1.5646687 C 122.66973 1.5646687 134.456 9.656935 134.456 31.803735 C 134.456 45.8616 129.7672 54.236534 116.84893 57.3616 L 126.362 65.02827" fill="#231f20"/>
      <path d="M 188.83466 53.953734 L 188.83466 39.19067 C 188.83466 19.879735 185.428 17.039735 177.33733 17.039735 C 169.38533 17.039735 166.11866 20.162135 166.11866 39.75587 L 166.11866 54.3808 C 166.11866 76.2444 169.80933 79.65427 177.476 79.65427 C 185.428 79.65427 188.83466 75.67507 188.83466 53.953734 L 188.83466 53.953734 M 143.96933 47.56307 C 143.96933 17.606402 153.91066 66872565e-11 177.476 66872565e-11 C 201.328 66872565e-11 210.98266 17.325068 210.98266 47.28187 C 210.98266 76.81307 201.04533 95.69333 177.33733 95.69333 C 153.62533 95.69333 143.96933 76.95267 143.96933 47.56307" fill="#231f20"/>
      <path d="M 223.47866 28.362668 L 224.67733 28.362668 L 234.18933 36.007334 L 244.63733 64.972 L 244.63733 93.98916 L 223.47866 93.98916 L 223.47866 28.362668" fill="#231f20"/>
      <path d="M 255.85466 22.781868 L 255.85466 1.5646687 L 312.21733 1.5646687 L 312.21733 22.781868 L 294.61333 22.781868 L 294.61333 93.98916 L 273.45733 93.98916 L 273.45733 22.781868 L 255.85466 22.781868" fill="#231f20"/>
    </g>
  </g>
</svg>
